X: 32342
T: Pinch Of Snuff, The
R: reel
M: 4/4
K: Dmixolydian
|afge d3B|ADFD EFGB|A3B =cBcd|eA (3B^cd efge|
afge d3B|ADFD EFGB|A3B =cBcd|eA (3B^cd efge||
f2df afdf|f2df efge|f2df afdf|eA (3B^cd efge|
f2df afdf|f2df efge|fa~a2 afdf|eA (3B^cd efge||

